package/converter/svg/regular/indent.svg

<svg xmlns="http://www.w3.org/2000/svg" viewBox="0 0 448 512"><!-- Font Awesome Pro 6.0.0-alpha2 by @fontawesome - https://fontawesome.com License - https://fontawesome.com/license (Commercial License) --><path d="M9.219 350.5C11.375 351.5 13.688 352 16 352C19.688 352 23.312 350.75 26.25 348.281L122.25 268.281C125.906 265.25 128 260.75 128 256S125.906 246.75 122.25 243.719L26.25 163.719C21.469 159.719 14.844 158.937 9.219 161.5C3.594 164.156 0 169.781 0 176V336C0 342.219 3.594 347.844 9.219 350.5ZM424 424H24C10.746 424 0 434.744 0 448C0 461.254 10.746 472 24 472H424C437.254 472 448 461.254 448 448C448 434.744 437.254 424 424 424ZM24 88H424C437.254 88 448 77.254 448 64C448 50.744 437.254 40 424 40H24C10.746 40 0 50.744 0 64C0 77.254 10.746 88 24 88ZM424 168H216C202.746 168 192 178.744 192 192C192 205.254 202.746 216 216 216H424C437.254 216 448 205.254 448 192C448 178.744 437.254 168 424 168ZM424 296H216C202.746 296 192 306.744 192 320C192 333.254 202.746 344 216 344H424C437.254 344 448 333.254 448 320C448 306.744 437.254 296 424 296Z"/></svg>

<svg xmlns="http://www.w3.org/2000/svg" viewBox="0 0 448 512"><!--! Font Awesome Pro 6.6.0 by @fontawesome - https://fontawesome.com License - https://fontawesome.com/license (Commercial License) Copyright 2024 Fonticons, Inc. --><path d="M0 64C0 77.3 10.7 88 24 88l400 0c13.3 0 24-10.7 24-24s-10.7-24-24-24L24 40C10.7 40 0 50.7 0 64zM192 192c0 13.3 10.7 24 24 24l208 0c13.3 0 24-10.7 24-24s-10.7-24-24-24l-208 0c-13.3 0-24 10.7-24 24zm24 104c-13.3 0-24 10.7-24 24s10.7 24 24 24l208 0c13.3 0 24-10.7 24-24s-10.7-24-24-24l-208 0zM0 448c0 13.3 10.7 24 24 24l400 0c13.3 0 24-10.7 24-24s-10.7-24-24-24L24 424c-13.3 0-24 10.7-24 24zM121 268.4c7.8-6.4 7.8-18.3 0-24.7L26.2 165.6C15.7 157 0 164.4 0 177.9L0 334.1c0 13.5 15.7 20.9 26.2 12.4L121 268.4z"/></svg>
